resources/automancy/models/items/files/fire.svg

<?xml version="1.0" encoding="UTF-8" standalone="no"?>
<!-- Created with Inkscape (http://www.inkscape.org/) -->

<svg
        width="160cm"
        height="160cm"
        viewBox="0 0 160 160"
        version="1.1"
        _id="SVGRoot"
        id="svg26"
        sodipodi:docname="fire.svg"
        inkscape:version="1.3 (0e150ed6c4, 2023-07-21)"
        xmlns:inkscape="http://www.inkscape.org/namespaces/inkscape"
        xmlns:sodipodi="http://sodipodi.sourceforge.net/DTD/sodipodi-0.dtd"
        xmlns="http://www.w3.org/2000/svg"
>
    <sodipodi:namedview
            id="namedview22"
            pagecolor="#505050"
            bordercolor="#eeeeee"
            borderopacity="1"
            inkscape:showpageshadow="0"
            inkscape:pageopacity="0"
            inkscape:pagecheckerboard="0"
            inkscape:deskcolor="#505050"
            inkscape:document-units="cm"
            showgrid="false"
            inkscape:zoom="0.079999996"
            inkscape:cx="2800.0001"
            inkscape:cy="2900.0001"
            inkscape:window-width="1870"
            inkscape:window-height="1051"
            inkscape:window-x="1920"
            inkscape:window-y="0"
            inkscape:window-maximized="1"
            inkscape:current-layer="svg26"/>
    <defs
            _id="defs402"
            id="defs8"/>
    <path
            id="path1"
            style="fill:#4b2c16;stroke-linecap:square;paint-order:stroke fill markers"
            d="M 159.99998,79.999992 A 79.999992,79.999992 0 0 1 79.999992,159.99998 79.999992,79.999992 0 0 1 0,79.999992 79.999992,79.999992 0 0 1 79.999992,0 79.999992,79.999992 0 0 1 159.99998,79.999992 Z"/>
    <path
            id="path1598"
            style="color:#000000;display:inline;fill:#e1771d;stroke-width:17.659;stroke-linecap:square;-inkscape-stroke:none;paint-order:stroke fill markers"
            d="M 32.249713,35.090695 C 72.081508,31.110113 99.322192,72.542628 99.753071,73.854586 129.73731,62.449995 98.387277,36.309559 64.731796,21.67535 147.11842,26.29261 151.06208,102.10257 113.41744,127.07366 51.372275,168.23055 -4.6850544,85.460152 39.535964,55.356372 23.734967,144.45753 120.00568,85.173093 32.249713,35.090695 Z M 83.841548,77.54883 C 86.437649,110.72187 58.858713,115.23579 58.858713,115.23579 80.030812,131.21355 123.7217,108.88022 120.74488,79.507835 99.409124,102.3 83.548537,77.97297 83.841548,77.54883 Z"
            sodipodi:nodetypes="cccscccccc"/>
</svg>

<svg width="160cm" height="160cm" viewBox="0 0 160 160" xmlns="http://www.w3.org/2000/svg">
    <path d="M160 80a80 80 0 0 1-80 80A80 80 0 0 1 0 80 80 80 0 0 1 80 0a80 80 0 0 1 80 80Z" fill="#4b2c16"/>
    <path d="M32.25 35.09c39.832-3.98 67.072 37.453 67.503 38.765 29.984-11.405-1.366-37.545-35.021-52.18 82.386 4.618 86.33 80.428 48.685 105.399C51.372 168.23-4.685 85.46 39.536 55.356c-15.801 89.102 80.47 29.817-7.286-20.265ZM83.842 77.55c2.596 33.173-24.983 37.687-24.983 37.687 21.172 15.978 64.863-6.356 61.886-35.728-21.336 22.792-37.196-1.535-36.903-1.96Z" fill="#e1771d"/>
</svg>
